X:1
T:The Road To Ballymac x2
L:1/8
Q:1/4=180
M:4/4
K:Gmaj
|:"G"!mf! B2 z2 d2 z2 | .d3 (g"C" ag) e z |"G" d2 z2"C" z4 |"G" z8"D7" |
"G"!mf! B2 z2 d2 z2 |"G" .d3 (g"C" ag) e z |"C/D"ee z2 z2 ee |1"D" z4 d4 :|2
"D"z4"G" d4 |:
"G"B2 .B2"Em" z B3 |"C" .c2 z d-"D7" d4 |"G" B2 .B2"Am" z c3 |"C" .e2 z f-"D7" f4 |
"G"B2 .B2"Em" z B3 |"C" .c2 z d-"D7" d4 |"G" .d2 z e-"C" (e2 d2) |1"D7" .c2 z2"G" B4 :|2
"D7".c2 z2"G" B4 |:

